svg/facebook.svg

<?xml version="1.0"?>
<svg class="icon icon-facebook" xmlns="http://www.w3.org/2000/svg" width="32" height="32" viewBox="0 0 16 16">
  <path class="background" fill="#3b5999" d="M 0.875,0 C 0.38722,0 0,0.38721 0,0.875 l 0,14.25 C 0,15.61266 0.38715,16 0.875,16 l 7.65625,0 0,-6.1875 -2.0625,0 0,-2.4375 2.0625,0 0,-1.78125 c 0,-2.06656 1.2814395,-3.1875 3.125,-3.1875 0.88307,0 1.62261,0.06435 1.84375,0.09375 l 0,2.15625 -1.25,0.03125 c -1.00252,0 -1.21875,0.45713 -1.21875,1.15625 l 0,1.53125 2.40625,0 -0.3125,2.4375 -2.09375,0 0,6.1875 4.09375,0 C 15.612599,16 16,15.61272 16,15.125 L 16,0.875 C 16,0.38721 15.61266,0 15.125,0 L 0.875,0 z"/>
  <path class="foreground" fill="white" d="m 11.03968,16.000001 v -6.19608 h 2.07973 l 0.31141,-2.41472 h -2.39114 v -1.54165 c 0,-0.69912 0.19414,-1.17555 1.19666,-1.17555 l 1.27866,-5.6e-4 v -2.15974 c -0.22114,-0.0294 -0.98017,-0.0952 -1.86324,-0.0952 -1.8435605,0 -3.1057105,1.12532 -3.1057105,3.19188 v 1.7808 h -2.08506 v 2.41472 h 2.08506 v 6.19608 H 11.03968 z"/>
</svg>

<svg class="icon icon-facebook" xmlns="http://www.w3.org/2000/svg" width="32" height="32" viewBox="0 0 16 16"><path class="background" fill="#3b5999" d="M.875 0A.87.87 0 0 0 0 .875v14.25A.87.87 0 0 0 .875 16h7.656V9.812H6.47V7.376H8.53V5.594c0-2.067 1.282-3.188 3.125-3.188.883 0 1.623.065 1.844.094v2.156l-1.25.032c-1.003 0-1.219.457-1.219 1.156v1.531h2.406l-.312 2.438h-2.094V16h4.094a.87.87 0 0 0 .875-.875V.875A.87.87 0 0 0 15.125 0H.875z"/><path class="foreground" fill="#fff" d="M11.04 16V9.804h2.08l.31-2.415h-2.39V5.848c0-.7.194-1.176 1.196-1.176h1.279v-2.16c-.221-.03-.98-.095-1.863-.095-1.844 0-3.106 1.125-3.106 3.191V7.39H6.461v2.415h2.085V16h2.494z"/></svg>
